src/pos-icons/page-last.svg

<svg height="24" viewBox="0 0 24 24" width="24" xmlns="http://www.w3.org/2000/svg"><path d="m5.59 7.41 4.59 4.59-4.59 4.59 1.41 1.41 6-6-6-6zm10.41-1.41h2v12h-2z"/></svg>

<?xml version="1.0" encoding="UTF-8"?><!DOCTYPE svg PUBLIC "-//W3C//DTD SVG 1.1//EN" "http://www.w3.org/Graphics/SVG/1.1/DTD/svg11.dtd"><svg xmlns="http://www.w3.org/2000/svg" xmlns:xlink="http://www.w3.org/1999/xlink" version="1.1" id="mdi-page-last" width="24" height="24" viewBox="0 0 24 24"><path d="M5.59,7.41L10.18,12L5.59,16.59L7,18L13,12L7,6L5.59,7.41M16,6H18V18H16V6Z" /></svg>
